X:1
T:Gymnopédie No. 1
T:Gymnopédie No. 1 transposed to C
T:from Trois Gymnopédies
T:Erik Satie (1866–1925)
C:Erik Satie(1866 – 1925)
Z:Éric Alfred Leslie Satie
%%score { ( 1 4 ) | ( 2 3 ) }
L:1/8
Q:1/4=80
M:3/4
K:C
V:1 treble nm="Piano"
V:4 treble 
V:2 bass 
V:3 bass 
V:1
!pp!"^Lent et douloureux""^Transposed and arranged for Lever Harp" z6 | z6 | z6 | z6 | %4
 z2!pp!!<(! (e2 g2 | f2 e2 !1!B2 | !3!A2 B2!<)!!>(! c2 | G6!>)! | E6-) | E6- | E6- | E6 | %12
!pp! z2!<(! (e2 g2 | f2 e2 !1!B2 | !3!A2 B2 c2!<)! |!>(! G6 | B6 | e6!>)! | %18
"^Levers: Bb, Eb both clefs""^""^" D6-) |"^" D6- | D6 |!p!!<(! (!4!G2 A2 _B2 | d2 c2 A2 | %23
 c2 _B2 A2!<)! |!>(! c6-!>)! | c4)!<(! (!3!c2 | d2 _e2 f2 | g2 _B2 c2!<)! |!>(! d2 c2 A2 | %29
"^Levers: E""^" c6-!>)! | c4)!<(! (c2 |"^Levers: B""^" f6 | e6!<)! | A2 G2 A2 | B2 c2 d2 | %35
!>(! B2 c2 d2 |"^Lever: Bb""^" E6!>)! |"Gm7" [DG_B]6) |"C""^""^Lever: B" [CEGc]6 |!pp! z6 | z6 | %41
 z6 | z6 | z2!pp!!<(! (e2 g2 | f2 e2 !1!B2!<)! |!>(! !3!A2 B2 c2!>)! | G6 | E6-) | E6- | E6- | E6 | %51
!pp! z2!<(! (e2 g2 | f2 e2 !1!B2 | !3!A2 B2 c2!<)! |!>(! G6 | B6 |"^" e6 | %57
"^Levers: Eb, Bb""^" D6-!>)! |"^" D6-) | D6 |!p!!<(! (!4!G2 A2 _B2 | d2 c2 A2!<)! | %62
!>(! c2 _B2 A2!>)! | c6- | c4)!<(! (!3!c2 | d2 _e2 f2 | g2 _B2 c2!<)! |!>(! d2 c2 A2 | c6-!>)! | %69
 c4)!<(! (c2 | f6 | _e6!<)! | A2 _B2 _e2 | d2 c2 _B2 | d2 c2 _B2 |!>(! _E6 | %76
[Q:1/4=46]"^46" [_B,DG_B]6!>)! |!pp![Q:1/4=34]"^34" [C_EGc]6) |] %78
V:2
 z2"Am" [A,CE]4 | z2"Em" [G,B,E]4 | z2"Am" [A,CE]4 | z2"Em" [G,B,E]4 | z2"Am" [A,CE]4 | %5
 z2"Em" [G,B,E]4 | z2"Am" [A,CE]4 | z2"Em" [G,B,E]4 | z2"Am" [A,CE]4 | z2"Em" [G,B,E]4 | %10
 z2"Am" [A,CE]4 | z2"Em" [G,B,E]4 | z2"Am" [A,CE]4 | z2"Em" [G,B,E]4 | z2"Am" [A,CE]4 | %15
 z2"Em" [G,B,E]4 | z2"Em" [G,B,E]4 | z2"Am""^" [A,CE]4 |"^" z2"Dm"[I:staff -1] [F,A,]4 | %19
[I:staff +1] z2"Dm7"[I:staff -1] [A,CF]4 |[I:staff +1] z2"Cm" [_E,G,C]4 | z2"Gm" [G,_B,D]4 | %22
 z2"Dm" [F,A,D]4 | z2"Dm7" [D,F,A,C]4 | z2"C9" [D,G,_B,C]4 | z2"C7" [G,_B,CE]4 | %26
 z2"Cm7" [_E,G,_B,]4 | z2"Gm" [G,_B,D]4 | z2"Dm7" [D,F,A,C]4 |"^" z2"C9" [D,G,_B,C]4 | %30
 z2"C7" [E,G,_B,C]4 |"^" z2"Dm" [A,DF]4 | z2"Em" [G,B,E]4 | z2"Am" [A,CE]4 | z2"G" [B,DG]4 | %35
 z2"Em" [G,B,EG]4 |"Dm7" z2[I:staff -1] [G,A,C]2 [D,F,A,C]2 |[I:staff +1] [G,,F,]6 | [C,,G,,C,]6 | %39
 z2"Am" [A,CE]4 | z2"Em" [G,B,E]4 | z2"Am" [A,CE]4 | z2"Em" [G,B,E]4 | z2"Am" [A,CE]4 | %44
 z2"Em" [G,B,E]4 | z2"Am" [A,CE]4 | z2"Em" [G,B,E]4 | z2"Am" [A,CE]4 | z2"Em" [G,B,E]4 | %49
 z2"Am" [A,CE]4 | z2"Em" [G,B,E]4 | z2"Am" [A,CE]4 | z2"Em" [G,B,E]4 | z2"Am" [A,CE]4 | %54
 z2"Em" [G,B,E]4 | z2"Em"[I:staff -1] [G,B,E]4 |[I:staff +1] z2"Am"[I:staff -1] [A,CE]4 | %57
[I:staff +1] z2"Dm"[I:staff -1] [F,A,]4 |"^"[I:staff +1] z2"Dm7"[I:staff -1] [A,CF]4 | %59
"^"[I:staff +1] z2"Cm" [G,C_E]4 | z2"Gm" [G,_B,D]4 | z2"Dm" [F,A,D]4 | z2"Dm7" [D,F,A,C]4 | %63
 z2"C9" [D,G,_B,C]4 | z2"C7" [E,G,_B,C]4 | z2"Cm7" [G,_B,_E]4 | z2"Gm" [G,_B,D]4 | %67
 z2"Dm7" [D,F,A,C]4 | z2"C9" [D,G,_B,C]4 | z2"C7" [E,G,_B,C]4 | z2"Dm" [A,DF]4 | z2"Cm" [G,C_EG]4 | %72
 z2"Eb" [G,_B,_E]4 | z2"Gm" [_B,DG]4 | z2"Eb" [G,_B,_EG]4 | z2 A,,2 D,2 |"Gm7" [G,,F,]6 | %77
"Cm" [C,,G,,C,]6 |] %78
V:3
 F,,6 | C,,6 | F,,6 | C,,6 | F,,6 | C,,6 | F,,6 | C,,6 | F,,6 | C,,6 | F,,6 | C,,6 | F,,6 | C,,6 | %14
 F,,6 | C,,6 | E,,6 | A,,,6 | D,,6 | D,,6 | C,,6 | G,,6 | C,,6 | C,,6 | C,,6 | C,,6 | C,,6 | C,,6 | %28
 C,,6 | C,,6 | C,,6 | D,,6 | E,,6 | A,,,6 | D,,6 | D,,6 | D,,6 | x6 | x6 | F,,6 | C,,6 | F,,6 | %42
 C,,6 | F,,6 | C,,6 | F,,6 | C,,6 | F,,6 | C,,6 | F,,6 | C,,6 | F,,6 | C,,6 | F,,6 | C,,6 | E,,6 | %56
 A,,,6 | D,,6 | D,,6 | C,,6 | G,,6 | C,,6 | C,,6 | C,,6 | C,,6 | C,,6 | C,,6 | C,,6 | C,,6 | C,,6 | %70
 D,,6 | D,,6 | D,,6 | D,,6 | D,,6 | D,,6 | x6 | x6 |] %78
V:4
 x6 | x6 | x6 | x6 | x6 | x6 | x6 | x6 | x6 | x6 | x6 | x6 | x6 | x6 | x6 | x6 | x6 | x6 | x6 | %19
 x6 | x6 | x6 | x6 | x6 | x6 | x6 | x6 | x6 | x6 | x6 | x6 | x6 | x6 | x6 | x6 | x6 | x6 | x6 | %38
 x6 | x6 | x6 | x6 | x6 | x6 | x6 | x6 | x6 | x6 | x6 | x6 | x6 | x6 | x6 | x6 | x6 | x6 | x6 | %57
 x6 | x6 | x6 | x6 | x6 | x6 | x6 | x6 | x6 | x6 | x6 | x6 | x6 | x6 | x6 | x6 | x6 | x6 | %75
 z2 [G,C]2 [A,CF]2 | x6 | x6 |] %78

